src/assets/images/Vector.svg

<svg fill="none" height="14" viewBox="0 0 14 14" width="14" xmlns="http://www.w3.org/2000/svg"><path d="m7.00005 5.46821 5.36245-5.362497 1.5319 1.531837-5.36252 5.3625 5.36252 5.36245-1.5319 1.5319-5.36245-5.36252-5.3625 5.36252-1.531837-1.5319 5.362497-5.36245-5.362497-5.3625 1.531837-1.531837z" fill="#bcbcbc"/></svg>

<svg width="14" height="14" viewBox="0 0 14 14" fill="none" xmlns="http://www.w3.org/2000/svg">
<path d="M7.00005 5.46821L12.3625 0.105713L13.8944 1.63755L8.53188 7.00005L13.8944 12.3625L12.3625 13.8944L7.00005 8.53188L1.63755 13.8944L0.105713 12.3625L5.46821 7.00005L0.105713 1.63755L1.63755 0.105713L7.00005 5.46821Z" fill="#BCBCBC"/>
</svg>
